icons/4_Outdated/Mastodon v1.svg

<svg width="1024" height="1024" viewBox="0 0 1024 1024" fill="none" xmlns="http://www.w3.org/2000/svg">
<g clip-path="url(#clip0_3_593)">
<path d="M512 1024C794.77 1024 1024 794.77 1024 512C1024 229.23 794.77 0 512 0C229.23 0 0 229.23 0 512C0 794.77 229.23 1024 512 1024Z" fill="#9ABEFF"/>
<path d="M750.73 448.119C750.73 337.119 677.97 304.529 677.97 304.529C641.28 287.679 578.28 280.599 512.86 280.059H511.24C445.8 280.589 382.84 287.669 346.15 304.529C346.15 304.529 273.39 337.079 273.39 448.119C273.39 473.539 272.9 503.959 273.71 536.189C276.36 644.799 293.64 751.809 394 778.379C440.29 790.619 480 793.199 512.06 791.429C570.12 788.229 602.71 770.699 602.71 770.699L600.79 728.569C600.79 728.569 559.3 741.649 512.72 740.069C466.54 738.489 417.82 735.069 410.36 678.409C409.667 673.141 409.333 667.832 409.36 662.519C443.143 670.068 477.52 674.656 512.1 676.229C547.21 677.829 580.1 674.159 613.59 670.229C677.73 662.569 733.59 623.049 740.59 586.939C751.63 530.059 750.73 448.119 750.73 448.119ZM664.9 591.219H611.64V460.699C611.64 433.179 600.06 419.239 576.92 419.239C551.32 419.239 538.48 435.789 538.48 468.549V539.999H485.48V468.529C485.48 435.769 472.64 419.219 447.04 419.219C423.9 419.219 412.32 433.219 412.32 460.679V591.199H359.1V456.749C359.1 429.255 366.117 407.429 380.15 391.269C394.65 375.099 413.62 366.829 437.15 366.829C464.41 366.829 485.06 377.299 498.71 398.269L512 420.519L525.27 398.269C538.92 377.269 559.57 366.829 586.83 366.829C610.38 366.829 629.36 375.109 643.83 391.269C657.863 407.415 664.863 429.242 664.83 456.749V591.219H664.9Z" fill="white"/>
</g>
<defs>
<clipPath id="clip0_3_593">
<rect width="1024" height="1024" fill="white"/>
</clipPath>
</defs>
</svg>

<svg xmlns="http://www.w3.org/2000/svg" viewBox="0 0 1024 1024">
   <circle cx="512" cy="512" r="512" style="fill:#2b90d9"/>
   <path d="M750.73 448.12c0-111-72.76-143.59-72.76-143.59-36.69-16.85-99.69-23.93-165.11-24.47h-1.62c-65.44.53-128.4 7.61-165.09 24.47 0 0-72.76 32.55-72.76 143.59 0 25.42-.49 55.84.32 88.07C276.36 644.8 293.64 751.81 394 778.38c46.29 12.24 86 14.82 118.06 13.05 58.06-3.2 90.65-20.73 90.65-20.73l-1.92-42.13s-41.49 13.08-88.07 11.5c-46.18-1.58-94.9-5-102.36-61.66a117.29 117.29 0 0 1-1-15.89 595.05 595.05 0 0 0 102.74 13.71c35.11 1.6 68-2.07 101.49-6 64.14-7.66 120-47.18 127-83.29 11.04-56.88 10.14-138.82 10.14-138.82Zm-85.83 143.1h-53.26V460.7c0-27.52-11.58-41.46-34.72-41.46-25.6 0-38.44 16.55-38.44 49.31V540h-53v-71.47c0-32.76-12.84-49.31-38.44-49.31-23.14 0-34.72 14-34.72 41.46V591.2H359.1V456.75q0-41.24 21.05-65.48c14.5-16.17 33.47-24.44 57-24.44 27.26 0 47.91 10.47 61.56 31.44L512 420.52l13.27-22.25c13.65-21 34.3-31.44 61.56-31.44 23.55 0 42.53 8.28 57 24.44q21.05 24.22 21 65.48v134.47Z" style="fill:#fff"/>
</svg>
